X:1
T:A Major               Eliakim Doolittle, 1800
T:Isaac Watts, 1717  (Psalm 101, Part 1) The Magistrate's Psalm             88. 88. (L. M.)
T:Jefferson
T:Transcribed from The Musical Harmonist, 1800.
%%score [ 1 2 3 4 ]
L:1/8
Q:1/4=110
M:4/4
K:A
V:1 treble nm="Tr." snm="Tr."
V:2 treble nm="C." snm="C."
V:3 treble-8 nm="T." snm="T."
V:4 bass nm="B." snm="B."
V:1
 A4 c2 c2 | (cdcB A2) G2 | A4 (e2 d2) | c6 B2 | A4 d4 | c4 e4 | d4 (d2 c2) | B4 E4 | %8
w: ||||||||
 (c2 A2) (G2 B2) | (e2 c2) (B2 A2) | B4 A4 | G4 A4 | (A2 B2) (c2 d2) | e4 (3(d2 e2 f2) | e4 e4 | %15
w: |||||||
 c8 | z4 A4 | c2 c2 e2 dc | B2 B2 B4- | B2 cd e2 e2 | c2 c2 B2 A2 | G8 | A4 A2 B2 | c2 d2 f2 df | %24
w: |||||||||
 e6 e2 | dc BA c2 e2 | A4 G4 | A8 |: z8 | z8 | z4 A4 | A2 A2 e2 e2 | f2 ed c2 c2 | d2 cB c2 e2 | %34
w: ||||||The|im- pious crew, that|fac- tious * band, Shall|hide their * heads or|
 ABAGAB cd | e6 A2 | c2 c2 c2 A2 | F2 F2 F2 AB | c6 cB | A6 B2 | A2 AF E4- | E6 A2 | c2 c2 c2 d2 | %43
w: quit~ _ _ _ _ _ the *|land. And|all that break the|pub- lic rest, where *|I have *|power, shall|be sup- * pressed,~|_ Where|I have power, shall|
 e2 e2 e4- | e6 f2 | ed cB (c4 | A2) A2 (ABcd | e4) e4 | c8 :| %49
w: be sup- pressed,~|_ Where|I * have * power.~|_ shall be~ _ _ _|_ sup-|pressed.|
V:2
 E4 A2 A2 | A6 E2 | F4 E4 | E6 E2 | A4 G4 | A4 A4 | (A2 G2) F4 | G4 A4 | A4 E4 | E4 F4 | G4 E4 | %11
w: I'll search the|land, and|raise the|just To|posts of|ho- nor,|wealth, * and|trust; The|men that|work thy|ho- ly|
 E4 E4 | A4 A4 | G4 G4 | E4 E4 | E8 | z4 A4 | E2 E2 E2 F2 | G2 G2 G4- | G2 E2 E2 E2 | E2 A2 G2 F2 | %21
w: will Shall|be my|friends and|fa- vorites|still.|In|vain shall sin- ners|hope to rise~|_ By flat- tering|or ma- li- cious|
 E8 | E4 A2 G2 | A2 E2 F2 BA | A6 E2 | FA GE FG AG | F4 E4 | E8 |: z8 | z8 | z8 | z8 | z4 z2 E2 | %33
w: lies;|And while the|in- no- cent I *|guard, The|bold * of- * fen- * der *|shan't be|spared.|||||Shall|
 F2 F2 F2 F2 | E2 E2 E4- | E6 z2 | z4 z2 A2 | c2 c2 c2 A2 | F2 F2 F2 AB | c6 cB | A6 B2 | %41
w: hide their heads or|quit the land.~|_|And|all that break the|pub- lic rest, Where *|I have *|power, shall|
 A2 AF E4- | E8- | E8- | E6 E2 | A2 A2 (G4 | A2) c2 (cBAF | E4) [EG]4 | [EA]8 :| %49
w: be sup- * pressed.~|_||* Where|I have power,~|_ shall be~ _ _ _|_ sup-|pressed.|
V:3
 A4 E2 E2 | (ABAB c2) B2 | (A2 B2) (c2 d2) | e6 d2 | c4 B4 | (A2 c2) (B2 G2) | A4 B4 | E4 A4 | %8
w: ||||||||
 (A2 c2) (B2 d2) | (c2 e2) (d2 c2) | d4 c4 | B4 (e2 d2) | (c2 B2) A4 | B4 (3(B2 c2 d2) | c4 B4 | %15
w: |||||||
 A8 | z4 E4 | A2 A2 A2 BA | G2 F2 E4- | E2 A2 c2 A2 | e2 c2 d2 c2 | B8 | c4 A2 E2 | A2 B2 c2 d2 | %24
w: |||||||||
 e6 c2 | d2 e2 fd ce | (d2 c2) B4 | A8 |: z8 | z4 A4 | A2 A2 e2 e2 | f2 ed c2 c2 | d2 cB c2 e2 | %33
w: |||||The|im- pious crew, that|fac- tious * band, Shall|hide their * heads or|
 ABAGAB cd | e6 e2 | A2 A2 A4- | A6 z2 | z4 z2 A2 | c2 c2 c2 A2 | F2 F2 F2 AB | c6 cB | A6 B2 | %42
w: quit~ _ _ _ _ _ the *|land, or|quit the land.~|_|And|all tha break the|pub- lic rest, Where *|I have *|power, shall|
 A2 AF E4- | E8- | E6 E2 | AB cd (e4 | de) fd (ecAd | c4) B4 | A8 :| %49
w: be sup- * pressed.~|_|* Where|I * have * power,~|_ _ shall * be~ _ _ _|_ sup-|pressed.|
V:4
 A,,4 A,,2 A,,2 | A,,6 E,2 | A,4 G,4 | A,6 G,2 | A,4 B,4 | (C2 A,2) (G,2 E,2) | F,4 B,,4 | %7
w: |||||||
 E,4 C,4 | A,,4 B,,4 | C,4 D,4 | B,,4 (C,2 D,2) | E,4 (C2 B,2) | (A,2 G,2) F,4 | E,4 G,4 | %14
w: |||||||
 A,4 E,4 | A,,8 | z4 A,,4 | A,,2 A,,2 C,2 D,2 | E,2 E,2 E,4- | E,2 E,2 A,2 A,2 | E,2 F,2 D,2 A,,2 | %21
w: |||||||
 E,8 | A,4 C2 B,2 | A,2 G,2 F,2 G,2 | A,6 A,2 | D,2 C,2 F,2 G,2 | A,4 E,4 | A,,8 |: z4 E,4 | %29
w: |||||||The|
 A,2 A,2 A,2 A,G, | F,2 F,G, A,2 A,2 | D2 CB, C2 A,C | B,4 E,4 | A,6 E,2 | A,2 A,2 E,2 E,2 | %35
w: im- pious crew, that *|fac- tious * band, Shall|hide their * heads or *|quit the|land, And|all that break the|
 C,2 A,,2 E,2 E,2 | A,,2 A,,2 A,,4- | A,,6 z2 | z4 z2 A,2 | C2 C2 C2 A,2 | F,2 F,2 F,2 A,B, | %41
w: pub- lic rest, the|pub- lic rest,~|_|And|all that break the|pub- lic rest, Where *|
 C6 CB, | A,6 A,2 | A,2 A,F, E,4- | E,6 G,2 | A,2 A,2 (E,4 | %46
w: I have *|power, shall|be sup- * pressed.~|_ Where|I have power,~|
 F,2) D,2"^_______________________________________________\nEdited by B. C. Johnston, 2017\n   1. Measure 25, \nCounter\n: first  note changed from G# to A.\n   2. Measure 37, Tenor: missing quarter-rest supplied at end of measure." A,4- | %47
w: _ shall be~|
 A,4 E,4 | A,,8 :| %49
w: _ sup-|pressed.|

